dist/assets/img/headphone.svg

<svg width="19" height="17" viewBox="0 0 19 17" fill="none" xmlns="http://www.w3.org/2000/svg">
<path d="M1.72727 9.1218V7.88064C1.72727 3.5947 5.21412 0.10791 9.5 0.10791C13.7859 0.10791 17.2727 3.5947 17.2727 7.88064V9.1218C18.3208 9.91041 19 11.1644 19 12.574C19 14.955 17.0629 16.8922 14.6818 16.8922C14.2049 16.8922 13.8182 16.5055 13.8182 16.0285V9.11944C13.8182 8.64248 14.2049 8.2558 14.6818 8.2558C14.9775 8.2558 15.2663 8.2858 15.5455 8.34274V7.88069C15.5455 4.54723 12.8335 1.83524 9.5 1.83524C6.16654 1.83524 3.45455 4.54723 3.45455 7.88069V8.34274C3.73367 8.2858 4.02247 8.2558 4.31818 8.2558C4.79514 8.2558 5.18182 8.64248 5.18182 9.11944V16.0285C5.18182 16.5055 4.79514 16.8922 4.31818 16.8922C1.93714 16.8922 0 14.955 0 12.574C0 11.1643 0.679163 9.91041 1.72727 9.1218Z" fill="white"/>
</svg>

<svg width="19" height="17" fill="none" xmlns="http://www.w3.org/2000/svg"><path d="M1.727 9.122V7.88C1.727 3.595 5.214.108 9.5.108s7.773 3.487 7.773 7.773v1.24A4.314 4.314 0 0119 12.575a4.323 4.323 0 01-4.318 4.318.864.864 0 01-.864-.863V9.12c0-.477.387-.863.864-.863.295 0 .584.03.864.087V7.88A6.052 6.052 0 009.5 1.835a6.052 6.052 0 00-6.045 6.046v.462c.279-.057.567-.087.863-.087.477 0 .864.386.864.863v6.91a.864.864 0 01-.864.863A4.323 4.323 0 010 12.574c0-1.41.68-2.664 1.727-3.452z" fill="#fff"/></svg>
